assets/images/logo-nsw.svg

<svg fill="none" height="500" viewBox="0 0 469 500" width="469" xmlns="http://www.w3.org/2000/svg" xmlns:xlink="http://www.w3.org/1999/xlink"><clipPath id="a"><path d="m0 0h468.75v500h-468.75z"/></clipPath><g clip-path="url(#a)" fill="#000"><path d="m124.787 386.481-74.5235-87.522h-32.0623v136.915h31.1958v-87.521l74.523 87.521h32.063v-136.915h-31.196zm295.494-87.522-20.797 87.522-21.664-87.522h-29.463l-21.663 86.655-19.931-86.655h-32.063l35.529 136.915h32.062l20.798-86.655 21.663 86.655h31.196v-.866l35.529-136.049z"/><path d="m14.7344 478.335c0-12.132 9.532-21.664 21.6638-21.664 7.7989 0 12.1317 1.733 16.4644 6.066l-4.3327 5.199c-3.4662-2.599-6.9324-4.333-12.1317-4.333-7.799 0-13.8648 6.933-13.8648 14.732 0 8.665 6.0658 15.597 14.7313 15.597 4.3328 0 7.799-.866 10.3986-3.465v-7.8h-11.2651v-6.065h18.1976v18.197c-4.3328 3.466-10.3987 6.933-17.3311 6.933-12.9983-1.734-22.5303-11.265-22.5303-23.397z"/><path d="m59.7891 478.335c0-12.132 9.5318-21.664 22.5305-21.664 12.9981 0 22.5304 9.532 22.5304 21.664s-9.5323 21.663-22.5304 21.663c-13.865 0-22.5305-9.531-22.5305-21.663zm36.3949 0c0-8.666-6.0656-15.598-14.7312-15.598-8.6657 0-14.7313 6.932-14.7313 14.731 0 8.665 6.0656 14.732 14.7313 14.732 8.6656.866 14.7312-6.067 14.7312-13.865z"/><path d="m103.125 456.671h8.666l12.132 32.929 12.998-32.929h8.665l-18.198 43.327h-6.065z"/><path d="m149.914 456.671h32.063v6.932h-24.264v11.265h21.664v6.066h-21.664v12.132h24.264v6.066h-32.063z"/><path d="m188.915 456.671h19.064c5.2 0 9.532 1.733 12.132 4.332 2.6 2.6 3.467 5.2 3.467 9.533 0 6.932-4.334 11.265-10.399 12.998l11.265 16.464h-8.666l-10.398-14.731h-9.532v14.731h-7.799v-43.327zm19.064 20.797c5.2 0 8.666-2.6 8.666-6.932 0-4.333-3.466-6.933-8.666-6.933h-11.265v13.865z"/><path d="m230.506 456.671h6.932l22.53 29.462v-29.462h7.799v42.461h-6.066l-24.263-30.329v30.329h-6.932z"/><path d="m274.695 456.671h8.666l12.998 19.931 12.131-19.931h8.666v42.461h-7.799v-30.329l-12.998 19.93h-.867l-12.998-19.93v30.329h-7.799z"/><path d="m324.098 456.671h31.195v6.932h-23.397v11.265h20.798v6.066h-20.798v12.132h24.264v6.066h-32.062z"/><path d="m363.086 456.671h6.932l22.53 29.462v-29.462h7.799v42.461h-6.065l-23.397-30.329v30.329h-7.799z"/><path d="m419.406 463.603h-12.998v-6.932h33.796v6.932h-12.999v35.529h-7.799z"/><path d="m163.781 416.81 18.198-21.663c12.132 10.398 25.996 17.331 41.594 17.331 12.132 0 19.931-5.2 19.931-12.998 0-7.8-5.2-12.132-27.73-17.332-27.73-6.932-45.927-14.731-45.927-42.461 0-25.13 19.931-41.594 48.527-41.594 19.93 0 37.262 6.066 51.993 17.331l-15.598 23.397c-12.132-8.666-24.263-13.865-36.395-13.865s-18.198 5.199-18.198 12.132c0 9.532 6.066 12.132 30.33 18.197 28.596 6.933 44.193 17.332 44.193 41.595 0 27.73-20.796 43.327-51.126 43.327-21.664-.866-42.461-8.665-59.792-23.397z"/><path d="m91.857 38.1287c-2.5993 0-4.3325 1.733-5.1993 5.1992 0 0-.8663 5.1993-1.7332 13.8649-.8662 7.799-1.7331 19.9309-1.7331 34.6622 0 32.929 4.3331 79.722 25.1296 116.117 15.599 27.73 38.129 43.328 63.259 43.328-9.532-7.799-21.664-19.931-27.73-38.994-6.065-18.198-8.665-39.862-8.665-64.125 0-32.929 5.199-62.3923 6.932-70.191.867-4.3325 3.466-8.6657 6.933-10.3988-25.13-16.4643-46.794-25.9964-51.1267-27.7295-2.6-.8665-3.4663-1.733-4.3331-1.733 0 .8665-.8663 0-1.7332 0z"/><path d="m307.628 77.124c-.867 0-1.734 0-1.734.8669 0 0-.866.8663-2.599 1.7331-1.733.8663-3.466 2.5994-6.066 5.1994-3.466 3.4662-11.265 10.3987-20.797 20.7966-14.731 15.598-32.929 40.728-42.461 70.191-5.2 17.331-7.799 32.062-7.799 43.327 0 8.666 1.733 16.465 4.332 22.531 2.6 6.066 6.933 10.399 12.999 12.998 2.599.867 5.199 1.733 9.532 1.733 17.331 0 45.927-14.731 56.326-46.793 5.199-17.331 7.799-38.129 7.799-60.659 0-28.596-4.333-53.7258-6.066-63.2583-.866-3.4663-.867-5.1994-.867-5.1994 0-1.7332-.866-3.4663-2.599-3.4663z"/><path d="m155.114 77.124c-1.733 0-2.599 1.7331-2.599 3.4663 0 0-.867 1.7331-.867 5.1994-.867 2.6-1.733 7.7993-2.6 14.7313-1.733 11.266-3.466 28.596-3.466 48.527 0 23.397 2.599 44.194 7.799 60.659 10.399 32.062 39.861 46.793 58.059 46.793 3.466 0 6.932-.866 9.532-1.733 1.733-.866 2.599-1.733 4.333-2.599-1.734-1.733-2.6-3.466-3.467-6.066-3.466-6.932-5.199-15.598-5.199-26.864 0-12.998 2.6-29.462 8.666-46.793.866-1.733.866-3.466 1.733-5.199 0-.867.866-.867.866-1.733-19.064-46.794-62.391-82.3227-67.591-86.6559-1.733 0-2.6-.8662-2.6-.8662-.866-.8669-1.733-.8669-2.599-.8669z"/><path d="m231.365 0c-.866 0-1.733.86655-3.466 2.59966 0 0-.866 1.7331-2.599 3.4662-2.6 3.4662-4.333 6.93244-6.067 10.39864-4.332 8.6655-12.131 21.6638-19.063 38.1283-5.2 11.2653-9.533 23.3966-13.865 35.5285 13.865 13.8647 32.928 36.3947 45.927 62.3917 9.532-20.797 24.263-41.594 44.194-61.5249-12.998-39.8616-32.063-72.7905-38.995-84.92224-1.733-2.59965-2.599-3.4662-2.599-3.4662-1.734-2.59966-3.467-2.59966-3.467-2.59966z"/><path d="m370.885 38.1287c-.867 0-1.733 0-2.6.8665 0 0-1.733.8665-3.466 1.7331-2.599.8665-6.066 2.5996-9.532 4.3327l-1.733.8666c-12.132 6.0659-25.13 12.9982-36.395 19.9305-1.733.8669-2.6 1.7331-4.333 2.6 3.466 1.7331 6.066 5.1994 6.932 10.3987v.8663c1.733 7.7987 6.933 36.3949 6.933 70.1909 0 24.263-2.6 45.06-8.666 64.125-6.065 19.063-17.33 31.195-26.863 38.994 24.264-.866 46.794-16.464 62.392-43.327 20.797-36.395 25.13-83.189 25.13-116.1179 0-11.2656-.866-23.3969-1.733-34.6623-.866-8.6655-1.733-12.9982-1.733-13.8648 0-5.1993-1.733-6.9323-4.333-6.9323z"/><path d="m302.423 10.4004h-.866c-.867 0-1.733 0-2.6.8666 0 0-5.2 3.4661-13.865 9.532-4.333 3.4662-12.131 8.6655-20.797 16.4645 6.066 13.8648 12.132 26.8634 17.331 40.7278 10.398-8.6657 22.53-16.4643 35.528-24.2633-3.465-19.0642-7.798-32.929-9.532-38.1283-.866-3.4662-2.599-5.1993-5.199-5.1993z"/><path d="m160.313 10.4004c-2.6 0-4.333 1.7331-5.199 4.3327-1.733 5.1994-6.066 19.0642-9.532 38.1283 12.998 8.6655 24.263 16.4642 34.662 25.1299 4.332-12.9982 10.399-26.863 17.331-40.7278-6.932-6.0659-13.865-11.2652-20.797-16.4645-8.666-6.0659-13.865-9.532-13.865-9.532-.867-.8666-1.733-.8666-2.6-.8666z"/><path d="m39.8643 99.6521c-6.9324 0-11.2652 0-11.2652 0-2.5996 0-5.1993 1.7329-6.9324 4.3329-.8665 1.733-1.7331 3.466-1.7331 5.2.8666 5.199 3.4662 22.53 25.13 50.26 11.2652-5.2 21.6641-10.399 32.0622-13.865-2.5994-13.865-3.4663-28.597-3.4663-44.195-12.998-.866-23.3966-1.7329-29.4625-1.7329-1.733 0-2.5996 0-4.3327 0z"/><path d="m422.881 99.6521c-.866 0-2.599 0-3.466 0-6.066 0-16.464.8669-29.462 1.7329 0 14.732-1.734 29.463-3.467 44.195 10.399 4.332 21.664 8.665 32.063 13.865 21.664-26.864 25.13-45.061 25.13-50.26 0-1.734-.867-4.334-1.733-5.2-1.733-2.6-4.333-4.3329-6.933-4.3329-.867 0-5.199 0-12.132 0z"/><path d="m383.01 155.112c-4.333 22.53-11.266 41.594-20.798 57.192-9.532 16.465-21.663 29.463-35.528 38.128 102.253-5.199 130.849-38.128 133.449-42.461.866-1.733 1.733-3.466 1.733-5.199 0-2.6-1.733-6.066-3.466-7.799 0 0-.867-.867-3.466-2.6-1.734-.866-4.334-2.599-6.933-4.332-.867-.867-1.733-.867-2.6-1.734-6.932-4.332-19.064-12.131-33.795-19.064-8.666-4.332-19.064-8.665-28.596-12.131z"/><path d="m79.7225 155.112c-34.6619 12.998-62.3915 31.195-72.79006 38.128-1.73313 1.733-3.46623 2.599-3.46623 2.599-1.73311 1.733-3.46621 4.333-3.46621 7.8 0 1.733.86655 3.466 1.7331 5.199 0 0 0 .866.86656.866v.867c.86655.866 2.59965 2.6 5.19928 4.333 4.33276 3.466 12.13176 9.532 24.26346 14.731 25.9965 11.265 61.5251 19.064 103.1196 21.664-13.865-8.666-25.996-21.664-35.5289-38.128-8.665-16.465-15.5975-35.529-19.9306-58.059z"/><path d="m370.889 258.23c-5.199 0-12.998.867-24.263 2.6-1.733 0-3.466.867-5.199.867-5.2.866-11.265.866-19.931.866-5.199 0-10.399 0-15.598 0h-.867c-5.199 0-11.265 0-17.331 0-12.132 0-28.596.867-43.327 4.333-.867 0-.867.866-.867 1.733 0 .866.867.866 1.733.866h.867c6.065-.866 11.265-.866 16.464-.866 18.198 0 31.196 3.466 43.328 6.066 11.265 2.6 22.53 6.065 37.262 6.065 16.464 0 28.596-3.465 34.662-9.531 1.733-1.734 2.599-4.333 2.599-6.066-1.733-5.199-2.599-6.933-9.532-6.933z"/><path d="m91.857 258.23c-6.9325 0-8.6656 1.734-8.6656 6.066 0 2.6.8669 4.333 2.6 6.066 5.1994 6.066 18.1976 9.532 34.6616 9.532 14.732 0 25.997-2.599 37.262-6.065 12.132-3.467 25.13-6.067 43.328-6.067 5.199 0 10.398 0 16.464.867h.867c.866 0 1.733 0 1.733-.867 0-.866-.867-.866-.867-1.733-13.865-4.332-30.329-4.332-43.327-4.332-6.066 0-12.132 0-17.332 0h-.866c-5.199 0-10.399 0-15.598 0-8.666 0-14.731 0-19.931-.867-1.733 0-3.466-.866-5.199-.866-12.131-.867-19.9306-1.734-25.13-1.734z"/></g></svg>

<svg width="469" height="500" viewBox="0 0 469 500" fill="none" xmlns="http://www.w3.org/2000/svg">
<g clip-path="url(#clip0)">
<path d="M124.787 386.481L50.2635 298.959H18.2012V435.874H49.397V348.353L123.92 435.874H155.983V298.959H124.787V386.481ZM420.281 298.959L399.484 386.481L377.82 298.959H348.357L326.694 385.614L306.763 298.959H274.7L310.229 435.874H342.291L363.089 349.219L384.752 435.874H415.948V435.008L451.477 298.959H420.281Z" fill="black"/>
<path d="M14.7344 478.335C14.7344 466.203 24.2664 456.671 36.3982 456.671C44.1971 456.671 48.5299 458.404 52.8626 462.737L48.5299 467.936C45.0637 465.337 41.5975 463.603 36.3982 463.603C28.5992 463.603 22.5334 470.536 22.5334 478.335C22.5334 487 28.5992 493.932 37.2647 493.932C41.5975 493.932 45.0637 493.066 47.6633 490.467V482.667H36.3982V476.602H54.5958V494.799C50.263 498.265 44.1971 501.732 37.2647 501.732C24.2664 499.998 14.7344 490.467 14.7344 478.335Z" fill="black"/>
<path d="M59.7891 478.335C59.7891 466.203 69.3209 456.671 82.3196 456.671C95.3177 456.671 104.85 466.203 104.85 478.335C104.85 490.467 95.3177 499.998 82.3196 499.998C68.4546 499.998 59.7891 490.467 59.7891 478.335ZM96.184 478.335C96.184 469.669 90.1184 462.737 81.4528 462.737C72.7871 462.737 66.7215 469.669 66.7215 477.468C66.7215 486.133 72.7871 492.2 81.4528 492.2C90.1184 493.066 96.184 486.133 96.184 478.335Z" fill="black"/>
<path d="M103.125 456.671H111.791L123.923 489.6L136.921 456.671H145.586L127.388 499.998H121.323L103.125 456.671Z" fill="black"/>
<path d="M149.914 456.671H181.977V463.603H157.713V474.868H179.377V480.934H157.713V493.066H181.977V499.132H149.914V456.671Z" fill="black"/>
<path d="M188.915 456.671H207.979C213.179 456.671 217.511 458.404 220.111 461.003C222.711 463.603 223.578 466.203 223.578 470.536C223.578 477.468 219.244 481.801 213.179 483.534L224.444 499.998H215.778L205.38 485.267H195.848V499.998H188.049V456.671H188.915ZM207.979 477.468C213.179 477.468 216.645 474.868 216.645 470.536C216.645 466.203 213.179 463.603 207.979 463.603H196.714V477.468H207.979Z" fill="black"/>
<path d="M230.506 456.671H237.438L259.968 486.133V456.671H267.767V499.132H261.701L237.438 468.803V499.132H230.506V456.671Z" fill="black"/>
<path d="M274.695 456.671H283.361L296.359 476.602L308.49 456.671H317.156V499.132H309.357V468.803L296.359 488.733H295.492L282.494 468.803V499.132H274.695V456.671Z" fill="black"/>
<path d="M324.098 456.671H355.293V463.603H331.896V474.868H352.694V480.934H331.896V493.066H356.16V499.132H324.098V456.671Z" fill="black"/>
<path d="M363.086 456.671H370.018L392.548 486.133V456.671H400.347V499.132H394.282L370.885 468.803V499.132H363.086V456.671Z" fill="black"/>
<path d="M419.406 463.603H406.408V456.671H440.204V463.603H427.205V499.132H419.406V463.603Z" fill="black"/>
<path d="M163.781 416.81L181.979 395.147C194.111 405.545 207.975 412.478 223.573 412.478C235.705 412.478 243.504 407.278 243.504 399.48C243.504 391.68 238.304 387.348 215.774 382.148C188.044 375.216 169.847 367.417 169.847 339.687C169.847 314.557 189.778 298.093 218.374 298.093C238.304 298.093 255.636 304.159 270.367 315.424L254.769 338.821C242.637 330.155 230.506 324.956 218.374 324.956C206.242 324.956 200.176 330.155 200.176 337.088C200.176 346.62 206.242 349.22 230.506 355.285C259.102 362.218 274.699 372.617 274.699 396.88C274.699 424.61 253.903 440.207 223.573 440.207C201.909 439.341 181.112 431.542 163.781 416.81Z" fill="black"/>
<path d="M91.857 38.1287C89.2577 38.1287 87.5245 39.8617 86.6577 43.3279C86.6577 43.3279 85.7914 48.5272 84.9245 57.1928C84.0583 64.9918 83.1914 77.1237 83.1914 91.855C83.1914 124.784 87.5245 171.577 108.321 207.972C123.92 235.702 146.45 251.3 171.58 251.3C162.048 243.501 149.916 231.369 143.85 212.306C137.785 194.108 135.185 172.444 135.185 148.181C135.185 115.252 140.384 85.7887 142.117 77.99C142.984 73.6575 145.583 69.3243 149.05 67.5912C123.92 51.1269 102.256 41.5948 97.9233 39.8617C95.3233 38.9952 94.457 38.1287 93.5902 38.1287C93.5902 38.9952 92.7239 38.1287 91.857 38.1287Z" fill="black"/>
<path d="M307.628 77.124C306.761 77.124 305.894 77.124 305.894 77.9909C305.894 77.9909 305.028 78.8572 303.295 79.724C301.562 80.5903 299.829 82.3234 297.229 84.9234C293.763 88.3896 285.964 95.3221 276.432 105.72C261.701 121.318 243.503 146.448 233.971 175.911C228.771 193.242 226.172 207.973 226.172 219.238C226.172 227.904 227.905 235.703 230.504 241.769C233.104 247.835 237.437 252.168 243.503 254.767C246.102 255.634 248.702 256.5 253.035 256.5C270.366 256.5 298.962 241.769 309.361 209.707C314.56 192.376 317.16 171.578 317.16 149.048C317.16 120.452 312.827 95.3222 311.094 85.7897C310.228 82.3234 310.227 80.5903 310.227 80.5903C310.227 78.8571 309.361 77.124 307.628 77.124Z" fill="black"/>
<path d="M155.114 77.124C153.381 77.124 152.515 78.8571 152.515 80.5903C152.515 80.5903 151.648 82.3234 151.648 85.7897C150.781 88.3897 149.915 93.589 149.048 100.521C147.315 111.787 145.582 129.117 145.582 149.048C145.582 172.445 148.181 193.242 153.381 209.707C163.78 241.769 193.242 256.5 211.44 256.5C214.906 256.5 218.372 255.634 220.972 254.767C222.705 253.901 223.571 253.034 225.305 252.168C223.571 250.435 222.705 248.702 221.838 246.102C218.372 239.17 216.639 230.504 216.639 219.238C216.639 206.24 219.239 189.776 225.305 172.445C226.171 170.712 226.171 168.979 227.038 167.246C227.038 166.379 227.904 166.379 227.904 165.513C208.84 118.719 165.513 83.1903 160.313 78.8571C158.58 78.8571 157.713 77.9909 157.713 77.9909C156.847 77.124 155.98 77.124 155.114 77.124Z" fill="black"/>
<path d="M231.365 0C230.499 0 229.632 0.86655 227.899 2.59966C227.899 2.59966 227.033 4.33276 225.3 6.06586C222.7 9.53206 220.967 12.9983 219.233 16.4645C214.901 25.13 207.102 38.1283 200.17 54.5928C194.97 65.8581 190.637 77.9894 186.305 90.1213C200.17 103.986 219.233 126.516 232.232 152.513C241.764 131.716 256.495 110.919 276.426 90.9881C263.428 51.1265 244.363 18.1976 237.431 6.06586C235.698 3.46621 234.832 2.59966 234.832 2.59966C233.098 0 231.365 0 231.365 0Z" fill="black"/>
<path d="M370.885 38.1287C370.018 38.1287 369.152 38.1287 368.285 38.9952C368.285 38.9952 366.552 39.8617 364.819 40.7283C362.22 41.5948 358.753 43.3279 355.287 45.061L353.554 45.9276C341.422 51.9935 328.424 58.9258 317.159 65.8581C315.426 66.725 314.559 67.5912 312.826 68.4581C316.292 70.1912 318.892 73.6575 319.758 78.8568C319.758 78.8568 319.758 78.8562 319.758 79.7231C321.491 87.5218 326.691 116.118 326.691 149.914C326.691 174.177 324.091 194.974 318.025 214.039C311.96 233.102 300.695 245.234 291.162 253.033C315.426 252.167 337.956 236.569 353.554 209.706C374.351 173.311 378.684 126.517 378.684 93.5881C378.684 82.3225 377.818 70.1912 376.951 58.9258C376.085 50.2603 375.218 45.9276 375.218 45.061C375.218 39.8617 373.485 38.1287 370.885 38.1287Z" fill="black"/>
<path d="M302.423 10.4004H301.557C300.69 10.4004 299.824 10.4004 298.957 11.267C298.957 11.267 293.757 14.7331 285.092 20.799C280.759 24.2652 272.961 29.4645 264.295 37.2635C270.361 51.1283 276.427 64.1269 281.626 77.9913C292.024 69.3256 304.156 61.527 317.154 53.728C313.689 34.6638 309.356 20.799 307.622 15.5997C306.756 12.1335 305.023 10.4004 302.423 10.4004Z" fill="black"/>
<path d="M160.313 10.4004C157.713 10.4004 155.98 12.1335 155.114 14.7331C153.381 19.9325 149.048 33.7973 145.582 52.8614C158.58 61.5269 169.845 69.3256 180.244 77.9913C184.576 64.9931 190.643 51.1283 197.575 37.2635C190.643 31.1976 183.71 25.9983 176.778 20.799C168.112 14.7331 162.913 11.267 162.913 11.267C162.046 10.4004 161.18 10.4004 160.313 10.4004Z" fill="black"/>
<path d="M39.8643 99.6521C32.9319 99.6521 28.5991 99.6521 28.5991 99.6521C25.9995 99.6521 23.3998 101.385 21.6667 103.985C20.8002 105.718 19.9336 107.451 19.9336 109.185C20.8002 114.384 23.3998 131.715 45.0636 159.445C56.3288 154.245 66.7277 149.046 77.1258 145.58C74.5264 131.715 73.6595 116.983 73.6595 101.385C60.6615 100.519 50.2629 99.6521 44.197 99.6521C42.464 99.6521 41.5974 99.6521 39.8643 99.6521Z" fill="black"/>
<path d="M422.881 99.6521C422.015 99.6521 420.282 99.6521 419.415 99.6521C413.349 99.6521 402.951 100.519 389.953 101.385C389.953 116.117 388.219 130.848 386.486 145.58C396.885 149.912 408.15 154.245 418.549 159.445C440.213 132.581 443.679 114.384 443.679 109.185C443.679 107.451 442.812 104.851 441.946 103.985C440.213 101.385 437.613 99.6521 435.013 99.6521C434.146 99.6521 429.814 99.6521 422.881 99.6521Z" fill="black"/>
<path d="M383.01 155.112C378.677 177.642 371.744 196.706 362.212 212.304C352.68 228.769 340.549 241.767 326.684 250.432C428.937 245.233 457.533 212.304 460.133 207.971C460.999 206.238 461.866 204.505 461.866 202.772C461.866 200.172 460.133 196.706 458.4 194.973C458.4 194.973 457.533 194.106 454.934 192.373C453.2 191.507 450.6 189.774 448.001 188.041C447.134 187.174 446.268 187.174 445.401 186.307C438.469 181.975 426.337 174.176 411.606 167.243C402.94 162.911 392.542 158.578 383.01 155.112Z" fill="black"/>
<path d="M79.7225 155.112C45.0606 168.11 17.331 186.307 6.93244 193.24C5.19931 194.973 3.46621 195.839 3.46621 195.839C1.7331 197.572 0 200.172 0 203.639C0 205.372 0.86655 207.105 1.7331 208.838C1.7331 208.838 1.7331 209.704 2.59966 209.704C2.59966 209.704 2.59966 209.704 2.59966 210.571C3.46621 211.437 5.19931 213.171 7.79894 214.904C12.1317 218.37 19.9307 224.436 32.0624 229.635C58.0589 240.9 93.5875 248.699 135.182 251.299C121.317 242.633 109.186 229.635 99.6531 213.171C90.9881 196.706 84.0556 177.642 79.7225 155.112Z" fill="black"/>
<path d="M370.889 258.23C365.69 258.23 357.891 259.097 346.626 260.83C344.893 260.83 343.16 261.697 341.427 261.697C336.227 262.563 330.162 262.563 321.496 262.563C316.297 262.563 311.097 262.563 305.898 262.563H305.031C299.832 262.563 293.766 262.563 287.7 262.563C275.568 262.563 259.104 263.43 244.373 266.896C243.506 266.896 243.506 267.762 243.506 268.629C243.506 269.495 244.373 269.495 245.239 269.495C245.239 269.495 245.239 269.495 246.106 269.495C252.171 268.629 257.371 268.629 262.57 268.629C280.768 268.629 293.766 272.095 305.898 274.695C317.163 277.295 328.428 280.76 343.16 280.76C359.624 280.76 371.756 277.295 377.822 271.229C379.555 269.495 380.421 266.896 380.421 265.163C378.688 259.964 377.822 258.23 370.889 258.23Z" fill="black"/>
<path d="M91.857 258.23C84.9245 258.23 83.1914 259.964 83.1914 264.296C83.1914 266.896 84.0583 268.629 85.7914 270.362C90.9908 276.428 103.989 279.894 120.453 279.894C135.185 279.894 146.45 277.295 157.715 273.829C169.847 270.362 182.845 267.762 201.043 267.762C206.242 267.762 211.441 267.762 217.507 268.629H218.374C219.24 268.629 220.107 268.629 220.107 267.762C220.107 266.896 219.24 266.896 219.24 266.029C205.375 261.697 188.911 261.697 175.913 261.697C169.847 261.697 163.781 261.697 158.581 261.697H157.715C152.516 261.697 147.316 261.697 142.117 261.697C133.451 261.697 127.386 261.697 122.186 260.83C120.453 260.83 118.72 259.964 116.987 259.964C104.856 259.097 97.0564 258.23 91.857 258.23Z" fill="black"/>
</g>
<defs>
<clipPath id="clip0">
<rect width="468.75" height="500" fill="white"/>
</clipPath>
</defs>
</svg>
